X:134
T:O'Sullivan's Polka
R:polka
H:Also in D, #105, #146
Z:id:hn-polka-134
M:2/4
L:1/8
K:G
d/e/ | dG Bc | d2 de | f/e/d cB | AB cd/e/ |
dG Bc | d2 de | f/e/d cA | AG G :|
|: z | dg ga | b2 ag | fd de | fg af |
dg ga | b2 ag | fd cA | AG G :|
P:variations
|: d/e/ | dG Bc | d2 de | f/e/d cB | AB cd/e/ |
dG Bc | d2 de | f/e/d cA | AG G :|
|: z | dg ga | b2 ag | fd de | fg af |
[1 dg ga | b2 ag | fd cA | AG G :|
[2 g/a/b ag | fd d>e | fd cA | AG G ||

